X: 1
T: Dr. Mulcrone
M: 4/4
L: 1/8
R: reel
K: Dmaj
fdAF DFAF|GGGB ABde|fdAF DFAF|GGGF EFGd|
fdAF DFAF|GGGB ABde|fdAF DFAd|egfe d3 e:|
fffe dBAB|fffe dAFA|fffe dBAB|gefd e2 de|
fffe dBAB|fffe dAFA|fffe dBAd|egfe d3 z:|
